packages/vibrant-icons/assets/icons/Replay/Thin.svg

<svg width="24" height="24" viewBox="0 0 24 24" fill="none" xmlns="http://www.w3.org/2000/svg">
<path d="M12.0001 22.8499C8.18561 22.8499 4.62561 20.8219 2.67411 17.5474L4.14611 16.6974C5.79561 19.4474 8.79061 21.1499 12.0001 21.1499C17.0456 21.1499 21.1501 17.0454 21.1501 11.9999C21.1501 6.9544 17.0451 2.8499 12.0001 2.8499C9.61811 2.8499 7.36111 3.7619 5.64561 5.4169L5.51461 5.5434L6.93447 6.53722C7.0009 6.58371 6.98728 6.68579 6.91098 6.71324L2.80291 8.19095C2.7379 8.21434 2.66933 8.16632 2.66907 8.09724L2.65235 3.73137C2.65204 3.65029 2.74327 3.60257 2.80969 3.64906L4.00161 4.4834L4.10611 4.5569L4.19511 4.4644C6.22911 2.3579 9.07461 1.1499 12.0001 1.1499C17.9831 1.1499 22.8501 6.0169 22.8501 11.9999C22.8501 17.9829 17.9831 22.8499 12.0001 22.8499ZM9.65011 8.44736C9.65011 8.36913 9.73589 8.32119 9.80252 8.3622L15.5752 11.9147C15.6387 11.9538 15.6387 12.046 15.5752 12.0851L9.80252 15.6376C9.73589 15.6786 9.65011 15.6307 9.65011 15.5524V8.44736Z" fill="#0C0C0C"/>
</svg>

<svg xmlns="http://www.w3.org/2000/svg" width="24" height="24" fill="none"><path fill="#0C0C0C" d="M12 22.85a10.89 10.89 0 0 1-9.326-5.303l1.472-.85A9.19 9.19 0 0 0 12 21.15c5.046 0 9.15-4.105 9.15-9.15 0-5.046-4.105-9.15-9.15-9.15a9.1 9.1 0 0 0-6.354 2.567l-.131.126 1.42.994a.1.1 0 0 1-.024.176L2.803 8.191a.1.1 0 0 1-.134-.094l-.017-4.366a.1.1 0 0 1 .158-.082l1.192.834.104.074.09-.093A10.9 10.9 0 0 1 12 1.15c5.983 0 10.85 4.867 10.85 10.85S17.983 22.85 12 22.85M9.65 8.447a.1.1 0 0 1 .153-.085l5.772 3.553a.1.1 0 0 1 0 .17l-5.772 3.553a.1.1 0 0 1-.153-.086z"/></svg>
